X: 38132
T: Sporting Days Of Easter, The
R: reel
M: 4/4
K: Dmixolydian
d2cA GEEE|(3AcA GE (3AcA D2|d2cA GEEE|(3AcA GE DEGA|
d2cA GEEE|(3AcA GE (3AcA D2|d2cA GEEE|(3AcA GE D4|
c3d eg~g2|gaag egge|c3d eg~g2|a2ge d3e|
c3d eg~g2|gaag egge|fged cAG2|Add^c defe||

